X:510
T: SCHOENE SILBERBLUETHE
N: F0976
O: Europa, Mitteleuropa, Deutschland
R: Natur - Lied, Blumen
M: 6/8
L: 1/8
K: G
 | BAGGAB | d2cA2z |
BAGGAB | A3-A2z |
BAGGAB | c3e3 |
dcBBcA | G3-G2z

@@@ Tune index: 5941
